<?xml version="1.0" encoding="UTF-8"?>
<map version="1.10" tiledversion="1.12.1-12-gfa6254757" orientation="orthogonal" renderorder="right-down" width="20" height="12" tilewidth="32" tileheight="32" infinite="0" nextlayerid="6" nextobjectid="10">
 <tileset firstgid="1" source=":/automap-tiles.tsx"/>
 <tileset firstgid="6" name="logic_tiles" tilewidth="32" tileheight="32" tilecount="3" columns="3">
  <image source="logic_tiles.png" width="96" height="32"/>
 </tileset>
 <tileset firstgid="9" name="logic_tiles" tilewidth="32" tileheight="32" tilecount="3" columns="3">
  <image source="logic_tiles.png" width="96" height="32"/>
 </tileset>
 <tileset firstgid="12" source="../../../logic_tiles.tsx"/>
 <tileset firstgid="15" name="Sign_enemyendtarget" tilewidth="32" tileheight="32" tilecount="2" columns="2">
  <image source="../../../Diceforce_assets/Tiles/Sign_enemyendtarget.png" width="64" height="32"/>
 </tileset>
 <tileset firstgid="17" name="Sign_enemystart" tilewidth="32" tileheight="32" tilecount="2" columns="2">
  <image source="../../../Diceforce_assets/Tiles/Sign_enemystart.png" width="64" height="32"/>
 </tileset>
 <tileset firstgid="19" name="Tiles" tilewidth="32" tileheight="32" tilecount="51" columns="17">
  <image source="../../../Diceforce_assets/Tiles/Tiles.png" width="544" height="96"/>
 </tileset>
 <tileset firstgid="70" name="tiles (3)" tilewidth="32" tileheight="32" tilecount="24" columns="4">
  <image source="tiles (3).png" width="159" height="223"/>
 </tileset>
 <tileset firstgid="94" name="casa (2)" tilewidth="32" tileheight="32" tilecount="96" columns="12">
  <image source="casa (2).png" width="384" height="256"/>
 </tileset>
 <layer id="1" name="Logic" width="20" height="12" locked="1">
  <data>
   <tile gid="13"/>
   <tile gid="10"/>
   <tile gid="10"/>
   <tile gid="10"/>
   <tile gid="10"/>
   <tile gid="10"/>
   <tile gid="10"/>
   <tile gid="10"/>
   <tile gid="10"/>
   <tile gid="10"/>
   <tile gid="10"/>
   <tile gid="10"/>
   <tile gid="10"/>
   <tile gid="10"/>
   <tile gid="10"/>
   <tile gid="10"/>
   <tile gid="10"/>
   <tile gid="10"/>
   <tile gid="10"/>
   <tile gid="10"/>
   <tile gid="10"/>
   <tile gid="10"/>
   <tile gid="10"/>
   <tile gid="10"/>
   <tile gid="10"/>
   <tile gid="10"/>
   <tile gid="10"/>
   <tile gid="10"/>
   <tile gid="10"/>
   <tile gid="10"/>
   <tile gid="10"/>
   <tile gid="10"/>
   <tile gid="10"/>
   <tile gid="10"/>
   <tile gid="10"/>
   <tile gid="10"/>
   <tile gid="10"/>
   <tile gid="10"/>
   <tile gid="10"/>
   <tile gid="10"/>
   <tile gid="13"/>
   <tile gid="13"/>
   <tile gid="13"/>
   <tile gid="13"/>
   <tile gid="13"/>
   <tile gid="13"/>
   <tile gid="13"/>
   <tile gid="13"/>
   <tile gid="13"/>
   <tile gid="13"/>
   <tile gid="13"/>
   <tile gid="13"/>
   <tile gid="13"/>
   <tile gid="13"/>
   <tile gid="13"/>
   <tile gid="13"/>
   <tile gid="13"/>
   <tile gid="13"/>
   <tile gid="13"/>
   <tile gid="13"/>
   <tile gid="10"/>
   <tile gid="10"/>
   <tile gid="10"/>
   <tile gid="10"/>
   <tile gid="10"/>
   <tile gid="10"/>
   <tile gid="10"/>
   <tile gid="10"/>
   <tile gid="10"/>
   <tile gid="10"/>
   <tile gid="10"/>
   <tile gid="10"/>
   <tile gid="10"/>
   <tile gid="10"/>
   <tile gid="10"/>
   <tile gid="10"/>
   <tile gid="10"/>
   <tile gid="10"/>
   <tile gid="10"/>
   <tile gid="10"/>
   <tile gid="13"/>
   <tile gid="13"/>
   <tile gid="13"/>
   <tile gid="13"/>
   <tile gid="13"/>
   <tile gid="13"/>
   <tile gid="13"/>
   <tile gid="13"/>
   <tile gid="13"/>
   <tile gid="13"/>
   <tile gid="13"/>
   <tile gid="13"/>
   <tile gid="13"/>
   <tile gid="13"/>
   <tile gid="13"/>
   <tile gid="13"/>
   <tile gid="13"/>
   <tile gid="13"/>
   <tile gid="13"/>
   <tile gid="13"/>
   <tile gid="14"/>
   <tile gid="14"/>
   <tile gid="14"/>
   <tile gid="14"/>
   <tile gid="14"/>
   <tile gid="14"/>
   <tile gid="14"/>
   <tile gid="14"/>
   <tile gid="14"/>
   <tile gid="14"/>
   <tile gid="14"/>
   <tile gid="14"/>
   <tile gid="14"/>
   <tile gid="14"/>
   <tile gid="14"/>
   <tile gid="14"/>
   <tile gid="14"/>
   <tile gid="14"/>
   <tile gid="14"/>
   <tile gid="14"/>
   <tile gid="13"/>
   <tile gid="13"/>
   <tile gid="13"/>
   <tile gid="13"/>
   <tile gid="13"/>
   <tile gid="13"/>
   <tile gid="13"/>
   <tile gid="13"/>
   <tile gid="13"/>
   <tile gid="13"/>
   <tile gid="13"/>
   <tile gid="13"/>
   <tile gid="13"/>
   <tile gid="13"/>
   <tile gid="13"/>
   <tile gid="13"/>
   <tile gid="13"/>
   <tile gid="13"/>
   <tile gid="13"/>
   <tile gid="13"/>
   <tile gid="14"/>
   <tile gid="14"/>
   <tile gid="14"/>
   <tile gid="14"/>
   <tile gid="14"/>
   <tile gid="14"/>
   <tile gid="14"/>
   <tile gid="14"/>
   <tile gid="14"/>
   <tile gid="14"/>
   <tile gid="14"/>
   <tile gid="14"/>
   <tile gid="14"/>
   <tile gid="14"/>
   <tile gid="14"/>
   <tile gid="14"/>
   <tile gid="14"/>
   <tile gid="14"/>
   <tile gid="14"/>
   <tile gid="14"/>
   <tile gid="13"/>
   <tile gid="13"/>
   <tile gid="13"/>
   <tile gid="13"/>
   <tile gid="13"/>
   <tile gid="13"/>
   <tile gid="13"/>
   <tile gid="13"/>
   <tile gid="13"/>
   <tile gid="13"/>
   <tile gid="13"/>
   <tile gid="13"/>
   <tile gid="13"/>
   <tile gid="13"/>
   <tile gid="13"/>
   <tile gid="13"/>
   <tile gid="13"/>
   <tile gid="13"/>
   <tile gid="13"/>
   <tile gid="13"/>
   <tile gid="14"/>
   <tile gid="14"/>
   <tile gid="14"/>
   <tile gid="14"/>
   <tile gid="14"/>
   <tile gid="14"/>
   <tile gid="14"/>
   <tile gid="14"/>
   <tile gid="14"/>
   <tile gid="14"/>
   <tile gid="14"/>
   <tile gid="14"/>
   <tile gid="14"/>
   <tile gid="14"/>
   <tile gid="14"/>
   <tile gid="14"/>
   <tile gid="14"/>
   <tile gid="14"/>
   <tile gid="14"/>
   <tile gid="14"/>
   <tile gid="10"/>
   <tile gid="10"/>
   <tile gid="10"/>
   <tile gid="10"/>
   <tile gid="10"/>
   <tile gid="10"/>
   <tile gid="10"/>
   <tile gid="10"/>
   <tile gid="10"/>
   <tile gid="10"/>
   <tile gid="10"/>
   <tile gid="10"/>
   <tile gid="10"/>
   <tile gid="10"/>
   <tile gid="10"/>
   <tile gid="10"/>
   <tile gid="10"/>
   <tile gid="10"/>
   <tile gid="10"/>
   <tile gid="10"/>
   <tile gid="14"/>
   <tile gid="14"/>
   <tile gid="14"/>
   <tile gid="14"/>
   <tile gid="14"/>
   <tile gid="14"/>
   <tile gid="14"/>
   <tile gid="14"/>
   <tile gid="14"/>
   <tile gid="14"/>
   <tile gid="14"/>
   <tile gid="14"/>
   <tile gid="14"/>
   <tile gid="14"/>
   <tile gid="14"/>
   <tile gid="14"/>
   <tile gid="14"/>
   <tile gid="14"/>
   <tile gid="14"/>
   <tile gid="14"/>
  </data>
 </layer>
 <layer id="5" name="Visual" width="20" height="12" locked="1">
  <data>
   <tile gid="106"/>
   <tile gid="107"/>
   <tile gid="108"/>
   <tile gid="109"/>
   <tile gid="110"/>
   <tile gid="111"/>
   <tile gid="166"/>
   <tile gid="167"/>
   <tile gid="168"/>
   <tile gid="169"/>
   <tile gid="170"/>
   <tile gid="171"/>
   <tile gid="172"/>
   <tile gid="94"/>
   <tile gid="112"/>
   <tile gid="113"/>
   <tile gid="114"/>
   <tile gid="115"/>
   <tile gid="116"/>
   <tile gid="117"/>
   <tile gid="118"/>
   <tile gid="119"/>
   <tile gid="120"/>
   <tile gid="121"/>
   <tile gid="122"/>
   <tile gid="123"/>
   <tile gid="178"/>
   <tile gid="179"/>
   <tile gid="180"/>
   <tile gid="181"/>
   <tile gid="182"/>
   <tile gid="183"/>
   <tile gid="184"/>
   <tile gid="106"/>
   <tile gid="124"/>
   <tile gid="125"/>
   <tile gid="126"/>
   <tile gid="127"/>
   <tile gid="128"/>
   <tile gid="129"/>
   <tile gid="130"/>
   <tile gid="131"/>
   <tile gid="132"/>
   <tile gid="133"/>
   <tile gid="134"/>
   <tile gid="135"/>
   <tile gid="166"/>
   <tile gid="167"/>
   <tile gid="168"/>
   <tile gid="169"/>
   <tile gid="170"/>
   <tile gid="171"/>
   <tile gid="172"/>
   <tile gid="118"/>
   <tile gid="136"/>
   <tile gid="137"/>
   <tile gid="138"/>
   <tile gid="139"/>
   <tile gid="140"/>
   <tile gid="141"/>
   <tile gid="142"/>
   <tile gid="143"/>
   <tile gid="144"/>
   <tile gid="145"/>
   <tile gid="146"/>
   <tile gid="147"/>
   <tile gid="178"/>
   <tile gid="179"/>
   <tile gid="180"/>
   <tile gid="181"/>
   <tile gid="182"/>
   <tile gid="183"/>
   <tile gid="184"/>
   <tile gid="130"/>
   <tile gid="148"/>
   <tile gid="149"/>
   <tile gid="150"/>
   <tile gid="151"/>
   <tile gid="152"/>
   <tile gid="153"/>
   <tile gid="154"/>
   <tile gid="155"/>
   <tile gid="156"/>
   <tile gid="157"/>
   <tile gid="158"/>
   <tile gid="159"/>
   <tile gid="94"/>
   <tile gid="95"/>
   <tile gid="96"/>
   <tile gid="97"/>
   <tile gid="98"/>
   <tile gid="99"/>
   <tile gid="100"/>
   <tile gid="111"/>
   <tile gid="160"/>
   <tile gid="161"/>
   <tile gid="162"/>
   <tile gid="163"/>
   <tile gid="164"/>
   <tile gid="165"/>
   <tile gid="70"/>
   <tile gid="71"/>
   <tile gid="71"/>
   <tile gid="71"/>
   <tile gid="71"/>
   <tile gid="71"/>
   <tile gid="71"/>
   <tile gid="71"/>
   <tile gid="71"/>
   <tile gid="71"/>
   <tile gid="71"/>
   <tile gid="71"/>
   <tile gid="71"/>
   <tile gid="71"/>
   <tile gid="71"/>
   <tile gid="71"/>
   <tile gid="71"/>
   <tile gid="71"/>
   <tile gid="71"/>
   <tile gid="70"/>
   <tile gid="74"/>
   <tile gid="74"/>
   <tile gid="74"/>
   <tile gid="74"/>
   <tile gid="74"/>
   <tile gid="74"/>
   <tile gid="74"/>
   <tile gid="74"/>
   <tile gid="74"/>
   <tile gid="74"/>
   <tile gid="74"/>
   <tile gid="74"/>
   <tile gid="74"/>
   <tile gid="74"/>
   <tile gid="74"/>
   <tile gid="74"/>
   <tile gid="74"/>
   <tile gid="74"/>
   <tile gid="74"/>
   <tile gid="74"/>
   <tile gid="70"/>
   <tile gid="71"/>
   <tile gid="71"/>
   <tile gid="71"/>
   <tile gid="71"/>
   <tile gid="71"/>
   <tile gid="71"/>
   <tile gid="71"/>
   <tile gid="71"/>
   <tile gid="71"/>
   <tile gid="71"/>
   <tile gid="71"/>
   <tile gid="71"/>
   <tile gid="71"/>
   <tile gid="71"/>
   <tile gid="71"/>
   <tile gid="71"/>
   <tile gid="71"/>
   <tile gid="71"/>
   <tile gid="70"/>
   <tile gid="74"/>
   <tile gid="74"/>
   <tile gid="74"/>
   <tile gid="74"/>
   <tile gid="74"/>
   <tile gid="74"/>
   <tile gid="74"/>
   <tile gid="74"/>
   <tile gid="74"/>
   <tile gid="74"/>
   <tile gid="74"/>
   <tile gid="74"/>
   <tile gid="74"/>
   <tile gid="74"/>
   <tile gid="74"/>
   <tile gid="74"/>
   <tile gid="74"/>
   <tile gid="74"/>
   <tile gid="74"/>
   <tile gid="74"/>
   <tile gid="70"/>
   <tile gid="71"/>
   <tile gid="71"/>
   <tile gid="71"/>
   <tile gid="71"/>
   <tile gid="71"/>
   <tile gid="71"/>
   <tile gid="71"/>
   <tile gid="71"/>
   <tile gid="71"/>
   <tile gid="71"/>
   <tile gid="71"/>
   <tile gid="71"/>
   <tile gid="71"/>
   <tile gid="71"/>
   <tile gid="71"/>
   <tile gid="71"/>
   <tile gid="71"/>
   <tile gid="71"/>
   <tile gid="70"/>
   <tile gid="74"/>
   <tile gid="74"/>
   <tile gid="74"/>
   <tile gid="74"/>
   <tile gid="74"/>
   <tile gid="74"/>
   <tile gid="74"/>
   <tile gid="74"/>
   <tile gid="74"/>
   <tile gid="74"/>
   <tile gid="74"/>
   <tile gid="74"/>
   <tile gid="74"/>
   <tile gid="74"/>
   <tile gid="74"/>
   <tile gid="74"/>
   <tile gid="74"/>
   <tile gid="74"/>
   <tile gid="74"/>
   <tile gid="74"/>
   <tile gid="70"/>
   <tile gid="71"/>
   <tile gid="71"/>
   <tile gid="71"/>
   <tile gid="71"/>
   <tile gid="71"/>
   <tile gid="71"/>
   <tile gid="71"/>
   <tile gid="71"/>
   <tile gid="71"/>
   <tile gid="71"/>
   <tile gid="71"/>
   <tile gid="71"/>
   <tile gid="71"/>
   <tile gid="71"/>
   <tile gid="71"/>
   <tile gid="71"/>
   <tile gid="71"/>
   <tile gid="71"/>
   <tile gid="70"/>
  </data>
 </layer>
 <objectgroup id="3" name="Points" locked="1">
  <object id="2" name="Spawn1" x="622" y="181">
   <point/>
  </object>
  <object id="3" name="Spawn2" x="622" y="245">
   <point/>
  </object>
  <object id="4" name="Spawn3" x="622" y="309">
   <point/>
  </object>
  <object id="5" name="Spawn4" x="622" y="373">
   <point/>
  </object>
  <object id="6" name="Goal1" x="17" y="181">
   <point/>
  </object>
  <object id="7" name="Goal2" x="17" y="245">
   <point/>
  </object>
  <object id="8" name="Goal3" x="17" y="309">
   <point/>
  </object>
  <object id="9" name="Goal4" x="17" y="373">
   <point/>
  </object>
 </objectgroup>
</map>
